X:1
T:New Minuet, A
T:Minuet [35]
M:3/4
L:1/8
R:Minuet
B:Richard Baldwin – The London Magazine (Jan., 1754, p. 37)
Z:AK/Fiddler’s Companion
K:D
(DFAd) fa|a2g2f2|(3bge (3afd (3gec|{e}d2 D4|fDFAdf|
eCEAce|(fed c2)TB2|A4 z2:||:eA ef {a}(3gfe|fA fg {b}(3agf|
eAef {a}(3gfe|f2e4|DFAd fa|{a}b2a2Tg2|(faf)dec|{c}d4z2:|]

